X: 149
T:Ship in Full Sail
R:jig
D:Bohola
Z: Alf 
M:6/8
L:1/8
K:G
|:DGG BGG|dGG BGG|ege dBG|AGA BGE|\
DGG BGG|dGG BAG|ege dBG|AGF G3:|
|: dgg bgg|aga bge|dgg bgg|aba age|\
dgg bgg|aga bgd|ege dBG|AGF G3:|
|:d2d dBG|e[ef][de] efg|d2d dBG|A[AA]A ABc|\
d2d dBG|e[ef][de] efg|dBG AGA|BGG G3:|
